X: 1
P: Glen Ogle
C: Athole Colln., arr. T. Traub 8-25-2004
M: 4/4
L: 1/8
R: reel
K: D
|: A|"D"d2 fd "G"B2 ed|"A"cABc "D"dAFD|"Bm"d2 fd "G"B2 ed|"A"cABc "D"d2 d:| e |"D"f2 df "G"gfed|"A"cABc "D"dAFD|
"Bm"f2 df "G"gfed|"A"cABc d2 de|"D"f2 df "G"gfed "A"cABc "D"dAFA|"D"dfdf "A"cecA|"G"Bg"A"ec "D"d2 d |]
